X: 19648
T: Jean's
R: reel
M: 4/4
K: Fmajor
(3CDE|:"F"F3G AFAc|"Dm"fA (3AAA dAcA|"Gm"G3A GADA|"C"GAGF DCDE|
"F"F2 FG AFAc|"Dm"fgaf gafd|"Gm"c2 Ac fcAc|1 "C"BGEG "F"F2 C2:|2 "C"BGEG "F"F2 Ac||
|:"F"fAcf AcfA|cfAc fAcf|"C"eccg ecge|fefg agfg|
"F"(3agf (3gfe (3fed"F/E"d^c|"Dm"defe dcAc|"Gm"c2 Ac fcAc|1 "C"BGEG "F"F2 Ac:|2 "C"BGEG "F"F3G||
|:"F"AC (3CCC A,C (3CCC|(3CCC AC (3CCC AC|"C"GC (3CCC G,C (3CCC|cC=BC "C/E"_BGEG|
"F"AC (3CCC (3CCC AC|FACF ACFA|"C"GC (3CCC cC=BC|1 BGEG "F"F3G:|2 BGEG "F"F2 Ac||
"F"fAcf AcfA|cfAc fAcf|"C"eccg ecge|fefg agfg|
"F"(3agf (3gfe (3fed"F/E"d^c|"Dm"defe dcAc|"Gm"c2 Ac fcAc|"C"BGEG "F"F2 Ac|
"F"fAcf _Acf=A|cf_Ac f=Acf|"C"eccg ecge|fefg agfg|
"F"(3agf (3gfe (3fed"F/E"d^c|"Dm"defe dcAc|"Gm"c2 Ac fcAc|"C"BGEG "F"F2||

